X:6
T:Bonnie Prince Charlie
C:arr. Carlo Minasi
M:6/8
L:1/8
B:Chappell's One Hundred Scotch Melodies
B:Arranged for the Concertina by Carlo Minasi
Q:"Allegretto  "3/8=90
Z:Peter Dunk 2012
K:D
!mf!(f>ed) d2 b|afd' (f>ed)|(fe)e (e<fa)|\
([d'b]>[c'a][bg]) ([bg][af][fd])|
%
([af]>[bg][d'b]) ([e'c']>[d'b][bg])|([bg][af][fd]) ([af][bg][d'f])|\
(f>ef) ([d'b]>[c'a][bg])|([af]d(f) {f}e2) d|
%
"_>"(d'>a)a "_>"(e'>a)a|"_>"g'>(e'd') (d'[af])[bg]|\
([af]fd) d2 (d'/e'/)|(f'g'/e'/(d'/){f'}(e'2)d')|
%
d'2 [af] (d'f'g')|(f'>e'd') ([d'b][c'a][bg])|\
([af]>[bg][af]) ([af]d)>e|(fa)>(f {f}(L[e2A2]) [dF])|]

